X:260
T: Scully Casey's
S: "Sully's Irish Banjo Book" (T.Sullivan)
Z: B.Black
L: 1/8
M: 4/4
R: hornpipe
K: D
(3ABc|dAFA DAFA|DAFA d2 ef|(3gfe ag edgf|\
(3efe (3dcB (3ABA (3EFG|
A2 FA DAFA|DAFA d2 ef|(3gfe ag edcd|(3efe dc d2 :|
de|(3fgf df (3fgf df|(3gag eg (3gag eg|\
(3fgf df (3fgf df|ceAe ceAe|
(3fgf df (3fgf df|(3gab ef (3gab eg|fa (3f^ga bgec|\
d2 dc d2 :|
